actions/24/depth8to16.svg

<?xml version="1.0" encoding="UTF-8" standalone="no"?>
<svg
   width="24"
   height="24"
   version="1.1"
   id="svg7"
   sodipodi:docname="depth8to16.svg"
   inkscape:version="1.1.2 (0a00cf5339, 2022-02-04)"
   xmlns:inkscape="http://www.inkscape.org/namespaces/inkscape"
   xmlns:sodipodi="http://sodipodi.sourceforge.net/DTD/sodipodi-0.dtd"
   xmlns="http://www.w3.org/2000/svg"
   xmlns:svg="http://www.w3.org/2000/svg">
  <sodipodi:namedview
     id="namedview9"
     pagecolor="#000000"
     bordercolor="#666666"
     borderopacity="1.0"
     inkscape:pageshadow="2"
     inkscape:pageopacity="0"
     inkscape:pagecheckerboard="0"
     showgrid="false"
     inkscape:zoom="160.74894"
     inkscape:cx="18.973686"
     inkscape:cy="9.2317871"
     inkscape:window-width="1837"
     inkscape:window-height="967"
     inkscape:window-x="0"
     inkscape:window-y="29"
     inkscape:window-maximized="1"
     inkscape:current-layer="svg7" />
  <defs
     id="defs3">
    <style
       id="current-color-scheme"
       type="text/css">
   .ColorScheme-Text { color:#eeeeec; } .ColorScheme-Highlight { color:#367bf0; } .ColorScheme-NeutralText { color:#ffcc44; } .ColorScheme-PositiveText { color:#3db47e; } .ColorScheme-NegativeText { color:#dd4747; }
  </style>
  </defs>
  <path
     style="fill:currentColor"
     class="ColorScheme-Text"
     transform="translate(1,1)"
     d="m 17,11 c -2,0 -2,2 -2,2 v 3 h 1 v -3 c 0,0 0,-1 1,-1 1,0 1,1 1,1 h 1 c 0,0 0,-2 -2,-2 z m 0,3 c -1.104569,0 -2,0.895431 -2,2 0,1.104569 0.895431,2 2,2 1.104569,0 2,-0.895431 2,-2 0,-1.104569 -0.895431,-2 -2,-2 z m 0,1 c 0.552285,0 1,0.447715 1,1 0,0.552285 -0.447715,1 -1,1 -0.552285,0 -1,-0.447715 -1,-1 0,-0.552285 0.447715,-1 1,-1 z m -5,-4 v 1 h 1 v 6 h 1 V 11 Z M 7,7 C 5.8954305,7 5,7.8954305 5,9 5,10.104569 5.8954305,11 7,11 8.1045695,11 9,10.104569 9,9 9,7.8954305 8.1045695,7 7,7 Z M 7,8 C 7.5522847,8 8,8.4477153 8,9 8,9.5522847 7.5522847,10 7,10 6.4477153,10 6,9.5522847 6,9 6,8.4477153 6.4477153,8 7,8 Z M 7,4 C 5.8954305,4 5,4.8954305 5,6 5,7.1045695 5.8954305,8 7,8 8.1045695,8 9,7.1045695 9,6 9,4.8954305 8.1045695,4 7,4 Z M 7,5 C 7.5522847,5 8,5.4477153 8,6 8,6.5522847 7.5522847,7 7,7 6.4477153,7 6,6.5522847 6,6 6,5.4477153 6.4477153,5 7,5 Z m 12,5 V 9 5 H 18 V 9 L 16.63368,8.7447899 16.457166,9 H 14 v 1 z m -1,0 C 18,7 14.5,4 11,4 v 1 c 2.012204,0 4.672243,1.9435034 5.63368,3.7447899 C 16.866751,9.1814554 17,9.6097633 17,10 Z M 4,12 v 1 4 H 5 V 13 L 6.36942,13.261008 6.5471426,13 H 9 v -1 z m 1,0 c 0,3 3.5,6 7,6 V 17 C 9.9899548,17 7.3334645,15.060665 6.36942,13.261008 6.1344312,12.822337 6,12.391964 6,12 Z"
     id="path5"
     sodipodi:nodetypes="sccccsccssssssssssscccccccsssssssssssssssssssscccccccccccccscccccccccccccccscc" />
</svg>

<svg xmlns="http://www.w3.org/2000/svg" width="24" height="24">
 <defs>
  <style id="current-color-scheme" type="text/css">
   .ColorScheme-Text { color:#eeeeec; } .ColorScheme-Highlight { color:#367bf0; } .ColorScheme-NeutralText { color:#ffcc44; } .ColorScheme-PositiveText { color:#3db47e; } .ColorScheme-NegativeText { color:#dd4747; }
  </style>
 </defs>
 <path style="fill:currentColor" class="ColorScheme-Text" transform="translate(1,1)" d="M 17,11 C 15,11 15,13 15,13 V 16 H 16 V 13 C 16,13 16,12 17,12 18,12 18,13 18,13 H 19 C 19,13 19,11 17,11 Z M 17,14 A 2,2 0 0 0 15,16 2,2 0 0 0 17,18 2,2 0 0 0 19,16 2,2 0 0 0 17,14 Z M 17,15 A 1,1 0 0 1 18,16 1,1 0 0 1 17,17 1,1 0 0 1 16,16 1,1 0 0 1 17,15 Z M 12,11 V 12 H 13 V 18 H 14 V 11 Z M 7,7 A 2,2 0 0 0 5,9 2,2 0 0 0 7,11 2,2 0 0 0 9,9 2,2 0 0 0 7,7 Z M 7,8 A 1,1 0 0 1 8,9 1,1 0 0 1 7,10 1,1 0 0 1 6,9 1,1 0 0 1 7,8 Z M 7,4 A 2,2 0 0 0 5,6 2,2 0 0 0 7,8 2,2 0 0 0 9,6 2,2 0 0 0 7,4 Z M 7,5 A 1,1 0 0 1 8,6 1,1 0 0 1 7,7 1,1 0 0 1 6,6 1,1 0 0 1 7,5 Z M 19,10 V 9 5 H 18 V 9 H 14 V 10 Z M 18,10 C 18,7 14.5,4 11,4 V 5 C 13.5,5 17,8 17,10 Z M 4,12 V 13 17 H 5 V 13 H 9 V 12 Z M 5,12 C 5,15 8.5,18 12,18 V 17 C 9.5,17 6,14 6,12 Z"/>
</svg>
